Obsidian-SemiLight/actions/24s/node-transform.svg

<svg viewBox="0 0 24 24" xmlns="http://www.w3.org/2000/svg"><path d="m4 4v1 1 1h3v-3h-1zm13 0v3h1 2v-2-1h-2zm-12 1h1v1h-1zm13 0h1v1h-1zm-10 1v1h2v-1zm3 0v1h2v-1zm3 0v1h2v-1zm-8 2v2h1v-2zm11 0v2h1v-2zm-11 3v2h1v-2zm11 0v2h1v-2zm-11 3v2h1v-2zm-2 3v1 1 1h1 1 1v-2-1h-1-1zm4 0v1h2v-1zm3 0v1h2v-1zm-6 1h1v1h-1z" fill="#4d4d4d"/><path d="m14 14v1 1h1v-1h1v-1zm4 0v1h1v1h1v-2h-1zm-4 4v2h1 1v-1h-1v-1zm5 0v1h-1v1h2v-1-1z" fill="#3daee9"/></svg>

<svg xmlns="http://www.w3.org/2000/svg" viewBox="0 0 24 24">
  <defs id="defs3051">
    <style type="text/css" id="current-color-scheme">
      .ColorScheme-Text {
        color:#4d4d4d;
      }
      .ColorScheme-Highlight {
        color:#3daee9;
      }
      </style>
  </defs>
 <path 
     style="fill:currentColor;fill-opacity:1;stroke:none" 
     d="M 4 4 L 4 5 L 4 6 L 4 7 L 7 7 L 7 4 L 6 4 L 4 4 z M 17 4 L 17 7 L 18 7 L 20 7 L 20 5 L 20 4 L 18 4 L 17 4 z M 5 5 L 6 5 L 6 6 L 5 6 L 5 5 z M 18 5 L 19 5 L 19 6 L 18 6 L 18 5 z M 8 6 L 8 7 L 10 7 L 10 6 L 8 6 z M 11 6 L 11 7 L 13 7 L 13 6 L 11 6 z M 14 6 L 14 7 L 16 7 L 16 6 L 14 6 z M 6 8 L 6 10 L 7 10 L 7 8 L 6 8 z M 17 8 L 17 10 L 18 10 L 18 8 L 17 8 z M 6 11 L 6 13 L 7 13 L 7 11 L 6 11 z M 17 11 L 17 13 L 18 13 L 18 11 L 17 11 z M 6 14 L 6 16 L 7 16 L 7 14 L 6 14 z M 4 17 L 4 18 L 4 19 L 4 20 L 5 20 L 6 20 L 7 20 L 7 18 L 7 17 L 6 17 L 5 17 L 4 17 z M 8 17 L 8 18 L 10 18 L 10 17 L 8 17 z M 11 17 L 11 18 L 13 18 L 13 17 L 11 17 z M 5 18 L 6 18 L 6 19 L 5 19 L 5 18 z "
     class="ColorScheme-Text"
     />
 <path 
     style="fill:currentColor;fill-opacity:1;stroke:none" 
     d="M 14 14 L 14 15 L 14 16 L 15 16 L 15 15 L 16 15 L 16 14 L 14 14 z M 18 14 L 18 15 L 19 15 L 19 16 L 20 16 L 20 14 L 19 14 L 18 14 z M 14 18 L 14 20 L 15 20 L 16 20 L 16 19 L 15 19 L 15 18 L 14 18 z M 19 18 L 19 19 L 18 19 L 18 20 L 20 20 L 20 19 L 20 18 L 19 18 z "
     class="ColorScheme-Highlight"
     />
</svg>
